assets/img/base/header-union.svg

<svg width="426" height="172" viewBox="0 0 426 172" fill="none" xmlns="http://www.w3.org/2000/svg">
<path fill-rule="evenodd" clip-rule="evenodd" d="M386.065 10.3226C386.065 4.62158 381.443 0 375.742 0H49.5484C43.8474 0 39.2258 4.62158 39.2258 10.3226V31.8452C39.2258 37.5462 34.6042 42.1677 28.9032 42.1677H10.3226C4.62158 42.1677 0 46.7893 0 52.4903V74.0129C0 79.7139 4.62158 84.3355 10.3226 84.3355H25.2903C30.9913 84.3355 35.6129 88.9571 35.6129 94.6581V111.742C35.6129 117.443 30.9913 122.065 25.2903 122.065H10.3226C4.62158 122.065 0 126.686 0 132.387V161.677C0 167.378 4.62156 172 10.3226 172H308.645C314.346 172 318.968 167.378 318.968 161.677V132.387C318.968 126.686 314.346 122.065 308.645 122.065H261.677C255.976 122.065 251.355 117.443 251.355 111.742V94.6581C251.355 88.9571 255.976 84.3355 261.677 84.3355H414.968C420.669 84.3355 425.29 79.7139 425.29 74.0129V52.4903C425.29 46.7893 420.669 42.1677 414.968 42.1677H396.387C390.686 42.1677 386.065 37.5462 386.065 31.8452V10.3226Z" fill="white"/>
</svg>

<svg width="426" height="172" fill="none" xmlns="http://www.w3.org/2000/svg"><path fill-rule="evenodd" clip-rule="evenodd" d="M386.065 10.323C386.065 4.622 381.443 0 375.742 0H49.548c-5.7 0-10.322 4.622-10.322 10.323v21.522c0 5.701-4.622 10.323-10.323 10.323h-18.58C4.622 42.168 0 46.789 0 52.49v21.523c0 5.7 4.622 10.322 10.323 10.322H25.29c5.701 0 10.323 4.622 10.323 10.323v17.084c0 5.701-4.622 10.323-10.323 10.323H10.323C4.622 122.065 0 126.686 0 132.387v29.29C0 167.378 4.622 172 10.323 172h298.322c5.701 0 10.323-4.622 10.323-10.323v-29.29c0-5.701-4.622-10.322-10.323-10.322h-46.968c-5.701 0-10.322-4.622-10.322-10.323V94.658c0-5.7 4.621-10.323 10.322-10.323h153.291c5.701 0 10.322-4.621 10.322-10.322V52.49c0-5.7-4.621-10.322-10.322-10.322h-18.581c-5.701 0-10.322-4.622-10.322-10.323V10.323Z" fill="#fff"/></svg>
